lib/functional/arrows/recycle.svg

<svg xmlns="http://www.w3.org/2000/svg" fill="none" stroke="currentColor" aria-hidden="true" viewBox="0 0 32 32"><g id="Icon-Recycle"><g clip-path="url(#clip0_4_1150)"><g id="size=md (32px)"><g id="Recycle"><path id="Vector" stroke-linecap="round" stroke-linejoin="round" stroke-width="2" d="M19 29L16 26L19 23"/><path id="Vector_2" stroke-linecap="round" stroke-linejoin="round" stroke-width="2" d="M24.325 9.40002L23.225 13.5L19.1375 12.4"/><path id="Vector_3" stroke-linecap="round" stroke-linejoin="round" stroke-width="2" d="M9.87499 17.6L8.77499 13.5L4.67499 14.6"/><path id="Vector_4" stroke-linecap="round" stroke-linejoin="round" stroke-width="2" d="M16 26H27C27.3505 25.9988 27.6945 25.9055 27.9975 25.7294C28.3006 25.5534 28.5521 25.3008 28.7268 24.997C28.9015 24.6931 28.9933 24.3487 28.993 23.9983C28.9926 23.6478 28.9002 23.3035 28.725 23L25.7375 17.825"/><path id="Vector_5" stroke-linecap="round" stroke-linejoin="round" stroke-width="2" d="M8.77498 13.5L3.27498 23C3.09973 23.3035 3.00733 23.6478 3.00702 23.9982C3.00671 24.3487 3.0985 24.6931 3.27321 24.997C3.44791 25.3008 3.69939 25.5534 4.00244 25.7294C4.3055 25.9055 4.6495 25.9988 4.99998 26H11"/><path id="Vector_6" stroke-linecap="round" stroke-linejoin="round" stroke-width="2" d="M23.225 13.5L17.725 4.00001C17.5511 3.6961 17.3 3.44353 16.9971 3.26787C16.6941 3.09221 16.3502 2.99969 16 2.99969C15.6499 2.99969 15.3059 3.09221 15.003 3.26787C14.7001 3.44353 14.4489 3.6961 14.275 4.00001L11.275 9.17501"/></g></g></g></g><defs><clipPath id="clip0_4_1150"><rect width="32" height="32" fill="white" rx="5"/></clipPath></defs></svg>

<svg xmlns="http://www.w3.org/2000/svg" fill="none" stroke="currentColor" aria-hidden="true" viewBox="0 0 32 32"><g stroke="#101828" stroke-linecap="round" stroke-linejoin="round" stroke-width="2" clip-path="url(#a)"><path d="m19 29-3-3 3-3m5.325-13.6-1.1 4.1-4.088-1.1m-9.262 5.2-1.1-4.1-4.1 1.1"/><path d="M16 26h11a1.999 1.999 0 0 0 1.725-3l-2.988-5.175M8.775 13.5l-5.5 9.5A2 2 0 0 0 5 26h6m12.225-12.5-5.5-9.5a1.987 1.987 0 0 0-3.45 0l-3 5.175"/></g><defs><clipPath id="a"><rect width="32" height="32" fill="#fff" rx="5"/></clipPath></defs></svg>
